svg/bus.svg

<?xml version="1.0" encoding="UTF-8" standalone="no"?>
<svg
   xmlns:dc="http://purl.org/dc/elements/1.1/"
   xmlns:cc="http://creativecommons.org/ns#"
   xmlns:rdf="http://www.w3.org/1999/02/22-rdf-syntax-ns#"
   xmlns:svg="http://www.w3.org/2000/svg"
   xmlns="http://www.w3.org/2000/svg"
   xmlns:sodipodi="http://sodipodi.sourceforge.net/DTD/sodipodi-0.dtd"
   xmlns:inkscape="http://www.inkscape.org/namespaces/inkscape"
   class="ionicon"
   viewBox="0 0 512 512"
   version="1.1"
   id="svg6"
   sodipodi:docname="bus.svg"
   inkscape:version="1.0.2 (e86c8708, 2021-01-15)">
  <metadata
     id="metadata12">
    <rdf:RDF>
      <cc:Work
         rdf:about="">
        <dc:format>image/svg+xml</dc:format>
        <dc:type
           rdf:resource="http://purl.org/dc/dcmitype/StillImage" />
      </cc:Work>
    </rdf:RDF>
  </metadata>
  <defs
     id="defs10" />
  <sodipodi:namedview
     pagecolor="#ffffff"
     bordercolor="#666666"
     borderopacity="1"
     objecttolerance="10"
     gridtolerance="10"
     guidetolerance="10"
     inkscape:pageopacity="0"
     inkscape:pageshadow="2"
     inkscape:window-width="689"
     inkscape:window-height="480"
     id="namedview8"
     showgrid="false"
     inkscape:zoom="1.3027344"
     inkscape:cx="256"
     inkscape:cy="256"
     inkscape:window-x="44"
     inkscape:window-y="25"
     inkscape:window-maximized="0"
     inkscape:current-layer="svg6" />
  <title
     id="title2">Bus</title>
  <path
     style="color:#000000;font-style:normal;font-variant:normal;font-weight:normal;font-stretch:normal;font-size:medium;line-height:normal;font-family:sans-serif;font-variant-ligatures:normal;font-variant-position:normal;font-variant-caps:normal;font-variant-numeric:normal;font-variant-alternates:normal;font-variant-east-asian:normal;font-feature-settings:normal;font-variation-settings:normal;text-indent:0;text-align:start;text-decoration:none;text-decoration-line:none;text-decoration-style:solid;text-decoration-color:#000000;letter-spacing:normal;word-spacing:normal;text-transform:none;writing-mode:lr-tb;direction:ltr;text-orientation:mixed;dominant-baseline:auto;baseline-shift:baseline;text-anchor:start;white-space:normal;shape-padding:0;shape-margin:0;inline-size:0;clip-rule:nonzero;display:inline;overflow:visible;visibility:visible;isolation:auto;mix-blend-mode:normal;color-interpolation:sRGB;color-interpolation-filters:linearRGB;solid-color:#000000;solid-opacity:1;vector-effect:none;fill:#000000;fill-opacity:1;fill-rule:nonzero;stroke-width:1;stroke-linecap:butt;stroke-linejoin:miter;stroke-miterlimit:4;stroke-dasharray:none;stroke-dashoffset:0;stroke-opacity:1;color-rendering:auto;image-rendering:auto;shape-rendering:auto;text-rendering:auto;enable-background:accumulate;stop-color:#000000;stop-opacity:1;stroke:none;opacity:1"
     d="M 400,32 H 112 C 85.490332,32 64,53.490332 64,80 v 320 c -9.07e-4,13.64852 5.81936,26.64954 16,35.74 V 454 c 0,14.3594 11.640597,26 26,26 h 28 c 14.3594,0 26,-11.6406 26,-26 v -6 h 192 v 6 c 0,14.3594 11.6406,26 26,26 h 28 c 14.3594,0 26,-11.6406 26,-26 v -18.26 c 10.18064,-9.09046 16.00091,-22.09148 16,-35.74 V 80 C 448,53.490332 426.50967,32 400,32 Z M 147.47,399.82 c -13.49708,1.4689 -26.45203,-5.73926 -32.31908,-17.9823 -5.86703,-12.24301 -3.36872,-26.85518 6.23144,-36.45534 9.60016,-9.60016 24.21233,-12.09847 36.45534,-6.23144 12.24304,5.86705 19.4512,18.822 17.9823,32.31908 -1.62512,14.93248 -13.41752,26.72488 -28.35,28.35 z M 236,288 H 112 c -8.83656,0 -16,-7.16344 -16,-16 V 144 c 0,-8.83656 7.16344,-16 16,-16 h 124 c 2.20914,0 4,1.79086 4,4 v 152 c 0,2.20914 -1.79086,4 -4,4 z M 256,96 H 112.46 c -8.6,0 -16,-6.6 -16.44,-15.19 C 95.556533,71.666834 102.84509,63.999705 112,64 h 287.54 c 8.6,0 16,6.6 16.44,15.19 0.46347,9.143166 -6.82509,16.810295 -15.98,16.81 z m 20,32 h 124 c 8.83656,0 16,7.16344 16,16 v 128 c 0,8.83656 -7.16344,16 -16,16 H 276 c -2.20914,0 -4,-1.79086 -4,-4 V 132 c 0,-2.20914 1.79086,-4 4,-4 z m 60.18,243.47 c -1.4689,-13.49708 5.73926,-26.45203 17.9823,-32.31908 12.24301,-5.86703 26.85518,-3.36872 36.45534,6.23144 9.60016,9.60016 12.09847,24.21233 6.23144,36.45534 -5.86705,12.24304 -18.822,19.4512 -32.31908,17.9823 -14.93248,-1.62512 -26.72488,-13.41752 -28.35,-28.35 z"
     id="path4" />
</svg>

<svg xmlns="http://www.w3.org/2000/svg" width="512" height="512" viewBox="0 0 512 512"><title>ionicons-v5-h</title><path d="M400,32H112A48,48,0,0,0,64,80V400a47.91,47.91,0,0,0,16,35.74V454a26,26,0,0,0,26,26h28a26,26,0,0,0,26-26v-6H352v6a26,26,0,0,0,26,26h28a26,26,0,0,0,26-26V435.74A47.91,47.91,0,0,0,448,400V80A48,48,0,0,0,400,32ZM147.47,399.82a32,32,0,1,1,28.35-28.35A32,32,0,0,1,147.47,399.82ZM236,288H112a16,16,0,0,1-16-16V144a16,16,0,0,1,16-16H236a4,4,0,0,1,4,4V284A4,4,0,0,1,236,288ZM256,96H112.46c-8.6,0-16-6.6-16.44-15.19A16,16,0,0,1,112,64H399.54c8.6,0,16,6.6,16.44,15.19A16,16,0,0,1,400,96H256Zm20,32H400a16,16,0,0,1,16,16V272a16,16,0,0,1-16,16H276a4,4,0,0,1-4-4V132A4,4,0,0,1,276,128Zm60.18,243.47a32,32,0,1,1,28.35,28.35A32,32,0,0,1,336.18,371.47Z"/></svg>
